UI/Travel-Transport-Tracking/SVG/traffic-off_outline_24px.svg

<svg width="24" height="24" viewBox="0 0 24 24" fill="none" xmlns="http://www.w3.org/2000/svg">
<path d="M2 14V16H3.75L5.75 14H2ZM10 18.25V20H8.25L6.43 21.82C6.5972 21.9367 6.79609 21.9995 7 22H10C10.5304 22 11.0391 21.7893 11.4142 21.4142C11.7893 21.0392 12 20.5304 12 20V16.25L10 18.25ZM7.72 12L9.15 10.56L8.59 9.79001C8.39665 9.53518 8.14499 9.33044 7.85615 9.19298C7.56731 9.05552 7.24971 8.98935 6.93 9.00001H2V11H7L7.72 12ZM2 14V16H3.75L5.75 14H2ZM2 14V16H3.75L5.75 14H2ZM16.5 12H16.26L14.26 14H18L16.5 12ZM22 9.00001H19.45L19.37 8.89001L17.93 10.33L19.29 12.18L20 13.18V18H18V16H14V18H16V19C16 19.2652 16.1054 19.5196 16.2929 19.7071C16.4804 19.8947 16.7348 20 17 20H20C20.5304 20 21.0391 19.7893 21.4142 19.4142C21.7893 19.0392 22 18.5304 22 18V13.06C22.0029 12.6995 21.8869 12.348 21.67 12.06L20.9 11H22V9.00001ZM16.5 12H16.26L14.26 14H18L16.5 12ZM16.5 12H16.26L14.26 14H18L16.5 12ZM15.5 4.27001L14.74 5.00001H13.49L13.12 4.45001C13.0285 4.31104 12.9037 4.1971 12.757 4.11852C12.6104 4.03994 12.4464 3.99921 12.28 4.00001H5.72C5.5536 3.99921 5.38963 4.03994 5.24295 4.11852C5.09627 4.1971 4.97152 4.31104 4.88 4.45001L4.51 5.00001H2L3.59 2.82001C3.78012 2.55967 4.03036 2.34913 4.3194 2.20636C4.60844 2.06358 4.9277 1.99279 5.25 2.00001H12.75C13.0723 1.99279 13.3916 2.06358 13.6806 2.20636C13.9696 2.34913 14.2199 2.55967 14.41 2.82001L15.27 4.00001L15.5 4.27001ZM3.43 22L2 20.57L20.57 2.00001L22 3.43001L3.43 22ZM11 9.00001L13 7.00001H9L11 9.00001Z" fill="#0F1621"/>
</svg>

<svg xmlns="http://www.w3.org/2000/svg" width="24" height="24" viewBox="0 0 24 24"><rect width="24" height="24" style="fill:none"/><path d="M2,14v2H3.75l2-2Zm8,4.25V20H8.25L6.43,21.82A1,1,0,0,0,7,22h3a2,2,0,0,0,2-2V16.25ZM7.72,12l1.43-1.44-.56-.77A2,2,0,0,0,6.93,9H2v2H7ZM2,14v2H3.75l2-2Zm0,0v2H3.75l2-2Zm14.5-2h-.24l-2,2H18ZM22,9H19.45l-.08-.11-1.44,1.44,1.36,1.85.71,1V18H18V16H14v2h2v1a1,1,0,0,0,1,1h3a2,2,0,0,0,2-2V13.06a1.64,1.64,0,0,0-.33-1L20.9,11H22Zm-5.5,3h-.24l-2,2H18Zm0,0h-.24l-2,2H18Zm-1-7.73L14.74,5H13.49l-.37-.55A1,1,0,0,0,12.28,4H5.72a1,1,0,0,0-.84.45L4.51,5H2L3.59,2.82A2,2,0,0,1,5.25,2h7.5a2,2,0,0,1,1.66.82L15.27,4ZM3.43,22,2,20.57,20.57,2,22,3.43ZM11,9l2-2H9Z"/></svg>
